X: 1727
T: Aoife's
R: jig
M: 6/8
K: Bminor
|:Bde fef|Bdf gfd|GBd f2 g|afe dBA|
Bde fef|Bdf gfa|afe afe|1 afe dBA:|2 az2 z3||
B3 BAB|c3 cBc|d3 dcd|ede fdc|
~B3 BAB|~c3 cBc|~d3 ede|afe dBA|
B3 BAB|"A"c3 cBc|d3 dcd|ede fdc|
B3 BAB|c3 cBc|d3 ede|az2 z3||

